assets/Battery/Flat/battery_flat.svg

<svg width="32" height="32" viewBox="0 0 32 32" fill="none" xmlns="http://www.w3.org/2000/svg">
<path d="M13 4V2.79004C13 2.35231 13.3143 2 13.7048 2H18.2952C18.6857 2 19 2.35231 19 2.79004V4H22.23C23.21 4 24 4.78939 24 5.76864V28.2314C24 29.2106 23.21 30 22.23 30H9.77C8.79 30 8 29.2106 8 28.2314V5.76864C8 4.78939 8.79 4 9.77 4H13Z" fill="#9B9B9B"/>
<path d="M24 6H8V28H24V6Z" fill="#86D72F"/>
<path d="M15 12.5V13.43C15 13.74 15.26 14 15.57 14H16.43C16.74 14 17 13.74 17 13.42V12.5H17.93C18.24 12.5 18.5 12.24 18.49 11.92V11.07C18.49 10.76 18.24 10.5 17.92 10.5H17V9.57C17 9.26 16.74 9 16.42 9H15.57C15.26 9 15 9.26 15 9.57V10.5H14.07C13.76 10.5 13.5 10.75 13.5 11.07V11.93C13.5 12.24 13.76 12.5 14.07 12.5H15ZM17.93 25H14.07C13.75 25 13.5 24.74 13.5 24.43V23.58C13.5 23.26 13.76 23 14.07 23H17.92C18.24 23 18.49 23.26 18.49 23.57V24.42C18.5 24.74 18.24 25 17.93 25Z" fill="white"/>
</svg>

<svg xmlns="http://www.w3.org/2000/svg" width="32" height="32" fill="none"><path fill="#9B9B9B" d="M13 4V2.79c0-.438.314-.79.705-.79h4.59c.39 0 .705.352.705.79V4h3.23c.98 0 1.77.79 1.77 1.769V28.23c0 .98-.79 1.769-1.77 1.769H9.77C8.79 30 8 29.21 8 28.231V5.77C8 4.789 8.79 4 9.77 4H13Z"/><path fill="#86D72F" d="M24 6H8v22h16V6Z"/><path fill="#fff" d="M15 12.5v.93c0 .31.26.57.57.57h.86c.31 0 .57-.26.57-.58v-.92h.93c.31 0 .57-.26.56-.58v-.85a.57.57 0 0 0-.57-.57H17v-.93c0-.31-.26-.57-.58-.57h-.85c-.31 0-.57.26-.57.57v.93h-.93a.57.57 0 0 0-.57.57v.86c0 .31.26.57.57.57H15ZM17.93 25h-3.86a.57.57 0 0 1-.57-.57v-.85c0-.32.26-.58.57-.58h3.85c.32 0 .57.26.57.57v.85c.01.32-.25.58-.56.58Z"/></svg>
